X: 4
T: Devil's Dream, The
I: RJ-7	A	reel
%O: British Isles, North American
M: C|
Z: Transcribed to abc by Mary Lou Knack
R: reel
K: A
e2 |:\
"A"agae agae | agae fedc |\
[1,3 "Bm"dfBf dfBf | dfBf "E"agfe :|\
[2,4 "D"dfed "A"cABA | "E"E2A2 "A"A2 :|
|: e2 |:\
"A"ceAe ceAe | ceAe fedc |\
[1,3 "Bm"dfBf dfBf | dfBf "E"agfe :|\
[1,3 "D"dfed "A"cABA | "E"E2A2 "A"A2 :|

